public/images/poses-lg/SideLunge.svg

<svg width="800" height="800" fill="none" xmlns="http://www.w3.org/2000/svg"><path d="M324.73 658.285s2.308 29.064 12.362 34.09c10.055 5.027 153.305 22.614 165.871 27.641 12.565 5.027 128.171 27.65 145.765 25.137 17.592-2.514 35.184-25.137 37.697-62.83 0 0 7.539-25.132 17.593 5.028 10.053 30.153-2.514 45.232 0 57.803 2.514 12.566 7.539 27.645 0 32.673-7.331 4.883-188.072 9.767-230.442-6.133-2.698-1.009-5.54-1.507-8.419-1.641-21.91-1.018-98.218-2.045-138.117-9.82-5.574-1.089-44.589-5.167-50.263-5.027-20.175.479-35.186 7.539-55.291-2.514-14.217-7.112-40.211-40.216-40.211-40.216s-2.513 27.651 0 35.189c2.513 7.539 12.566 27.646 7.539 35.184-5.026 7.539-90.475 12.566-90.475 12.566s-22.618-15.079 17.593-22.619c40.211-7.537 35.184-27.644 35.184-27.644s-40.211-92.993-42.724-105.554c-2.513-12.57-2.513-42.724 12.566-47.75 15.079-5.026 37.697-7.538 52.777 20.106 15.079 27.644 47.75 52.776 47.75 52.776v-5.031l103.245-1.414Z" fill="#fff" stroke="#000" stroke-width="5" stroke-miterlimit="10"/><path d="M324.73 658.285s2.308 29.064 12.362 34.09c10.055 5.027 153.305 22.614 165.871 27.641 12.565 5.027 128.171 27.65 145.765 25.137 17.592-2.514 35.184-25.137 37.697-62.83 0 0 7.539-25.132 17.593 5.028 10.053 30.153-2.514 45.232 0 57.803 2.514 12.566 7.539 27.645 0 32.673-7.331 4.883-188.072 9.767-230.442-6.133-2.698-1.009-5.54-1.507-8.419-1.641-21.91-1.018-98.218-2.045-138.117-9.82-5.574-1.089-44.589-5.167-50.263-5.027-20.175.479-35.186 7.539-55.291-2.514-14.217-7.112-40.211-40.216-40.211-40.216s-2.513 27.651 0 35.189c2.513 7.539 12.566 27.646 7.539 35.184-5.026 7.539-90.475 12.566-90.475 12.566s-22.618-15.079 17.593-22.619c40.211-7.537 35.184-27.644 35.184-27.644s-40.211-92.993-42.724-105.554c-2.513-12.57-2.513-42.724 12.566-47.75 15.079-5.026 37.697-7.538 52.777 20.106 15.079 27.644 47.75 52.776 47.75 52.776v-5.031l103.245-1.414Z" stroke="#000" stroke-width="5" stroke-miterlimit="10"/><path d="M181.275 712.476c-.857-13.953-1.208-28.102-4.548-41.751-3.019-12.335-9.555-22.687-15.713-33.635" fill="#fff"/><path d="M181.275 712.476c-.857-13.953-1.208-28.102-4.548-41.751-3.019-12.335-9.555-22.687-15.713-33.635" stroke="#000" stroke-width="5" stroke-miterlimit="10"/><path d="M181.275 712.476c-.857-13.953-1.208-28.102-4.548-41.751-3.019-12.335-9.555-22.687-15.713-33.635" stroke="#000" stroke-width="5" stroke-miterlimit="10"/><path d="M325.155 662.188c-33.398 9.134-68.202 8.924-103.669-2.488 4.773-41.566-.758-80.924-.758-80.924 9.302-27.068 5.784-49.762 5.784-49.762s9.6-3.492 21.964-13.143c12.364-9.677 9.124-42.27 9.124-42.27s.801.123 15.88.123 15.707-.123 15.707-.123-3.087 32.593 9.277 42.27c12.389 9.651 23.549 13.143 23.549 13.143s-5.08 22.694 4.197 49.762c0 0-6.236 41.19-1.055 83.412Z" fill="#fff" stroke="#000" stroke-width="5" stroke-miterlimit="10"/><path d="M325.155 662.188c-33.398 9.134-68.202 8.924-103.669-2.488 4.773-41.566-.758-80.924-.758-80.924 9.302-27.068 5.784-49.762 5.784-49.762s9.6-3.492 21.964-13.143c12.364-9.677 9.124-42.27 9.124-42.27s.801.123 15.88.123 15.707-.123 15.707-.123-3.087 32.593 9.277 42.27c12.389 9.651 23.549 13.143 23.549 13.143s-5.08 22.694 4.197 49.762c0 0-6.236 41.19-1.055 83.412Z" stroke="#000" stroke-width="5" stroke-miterlimit="10"/><path d="M245.95 406.177c-18.135 37.59 10.489 82.737 26.96 82.955 16.468.215 46.276-44.162 29.137-82.216-10.803-23.986-44.667-24.433-56.097-.739Z" fill="#fff" stroke="#000" stroke-width="5" stroke-miterlimit="10"/><path d="M245.95 406.177c-18.135 37.59 10.489 82.737 26.96 82.955 16.468.215 46.276-44.162 29.137-82.216-10.803-23.986-44.667-24.433-56.097-.739Z" stroke="#000" stroke-width="5" stroke-miterlimit="10"/><path d="M379.744 451.436c-14.459-7.939-10.791-18.121-23.62-28.302-12.829-10.183-28.721-3.307-35.431-19.755-6.654-16.296-28.315-25.603-47.189-25.375v-.003c-.01 0-.02.003-.029.003l-.03-.003v.003c-18.878-.228-40.539 9.079-47.188 25.375-6.71 16.448-22.602 9.572-35.433 19.755-12.826 10.18-9.162 20.363-23.618 28.302-14.459 7.943-15.636 7.207-15.069 13.442.834 9.195 33.711 5.557 58.37 6.185 4.833.126 22.435 5.017 27.142 6.122 9.629 2.253 21.998 1.935 22.254-1.517.407-5.498-1.355-18.577-5.11-25.269-3.751-6.695-11.496-4.536-11.496-14.357 0-9.165 3.76-5.597 12.414-13.745 7.63-7.187 15.266-15.506 17.764-22.265 2.498 6.759 10.131 15.079 17.759 22.265 8.656 8.148 12.418 4.58 12.418 13.745 0 9.821-7.748 7.662-11.5 14.357-3.75 6.692-5.512 19.771-5.104 25.269.254 3.45 12.623 3.77 22.252 1.517 4.708-1.105 22.309-5.996 27.142-6.122 24.656-.628 57.534 3.009 58.368-6.185.569-6.235-.609-5.499-15.066-13.442Z" fill="#040004" stroke="#000" stroke-width="5" stroke-miterlimit="10"/><path d="M237.728 523.205s13.428 20.209 35.939 20.209c22.51 0 35.935-20.209 35.935-20.209" fill="#fff"/><path d="M237.728 523.205s13.428 20.209 35.939 20.209c22.51 0 35.935-20.209 35.935-20.209" stroke="#000" stroke-width="5" stroke-miterlimit="10"/><path d="M237.728 523.205s13.428 20.209 35.939 20.209c22.51 0 35.935-20.209 35.935-20.209" stroke="#000" stroke-width="5" stroke-miterlimit="10"/><path d="M261.964 639.594c3.497.366 4.918-42.724 7.377-45.238l2.459-2.514s2.462-2.513 2.462 7.539v46.456c0 4.633-4.352 7.972-8.705 6.684 0 0-.815-.25-1.134-.361-33.987 1.593-66.389 1.274-95.93-2.514-7.381-5.026-9.84-7.538-4.921-30.159 4.921-22.617 36.898-75.394 41.815-82.935 4.919-7.538 21.098-7.538 21.098-7.538 4.919 2.513-2.553 47.786-7.539 50.263-4.993 2.48-30.131 50.263-30.131 50.263s.532 2.515 73.149 10.054Z" fill="#fff" stroke="#000" stroke-width="5" stroke-miterlimit="10"/><path d="M261.964 639.594c3.497.366 4.918-42.724 7.377-45.238l2.459-2.514s2.462-2.513 2.462 7.539v46.456c0 4.633-4.352 7.972-8.705 6.684 0 0-.815-.25-1.134-.361-33.987 1.593-66.389 1.274-95.93-2.514-7.381-5.026-9.84-7.538-4.921-30.159 4.921-22.617 36.898-75.394 41.815-82.935 4.919-7.538 21.098-7.538 21.098-7.538 4.919 2.513-2.553 47.786-7.539 50.263-4.993 2.48-30.131 50.263-30.131 50.263s.532 2.515 73.149 10.054Z" stroke="#000" stroke-width="5" stroke-miterlimit="10"/><path d="M286.561 639.594c-3.5.366-4.92-42.724-7.383-45.238l-2.456-2.514s-2.462-2.513-2.462 7.539v46.456c0 4.633 4.352 7.972 8.704 6.684 0 0 .817-.25 1.138-.361 33.981 1.593 66.386 1.274 95.928-2.514 7.381-5.026 9.842-7.538 4.92-30.159-4.92-22.617-36.893-75.394-41.814-82.935-4.918-7.538-21.094-7.538-21.094-7.538-4.924 2.513.005 47.786 4.995 50.263 4.993 2.48 32.673 50.263 32.673 50.263s-.534 2.515-73.149 10.054Z" fill="#fff" stroke="#000" stroke-width="5" stroke-miterlimit="10"/><path d="M286.561 639.594c-3.5.366-4.92-42.724-7.383-45.238l-2.456-2.514s-2.462-2.513-2.462 7.539v46.456c0 4.633 4.352 7.972 8.704 6.684 0 0 .817-.25 1.138-.361 33.981 1.593 66.386 1.274 95.928-2.514 7.381-5.026 9.842-7.538 4.92-30.159-4.92-22.617-36.893-75.394-41.814-82.935-4.918-7.538-21.094-7.538-21.094-7.538-4.924 2.513.005 47.786 4.995 50.263 4.993 2.48 32.673 50.263 32.673 50.263s-.534 2.515-73.149 10.054Z" stroke="#000" stroke-width="5" stroke-miterlimit="10"/><path d="M151.116 745.147s16.464 10.053 29.592 0Z" fill="#fff"/><path d="M151.116 745.147s16.464 10.053 29.592 0" stroke="#000" stroke-width="5" stroke-miterlimit="10"/><path d="M151.116 745.147s16.464 10.053 29.592 0" stroke="#000" stroke-width="5" stroke-miterlimit="10"/><path d="M643.299 745.311s12.152 13.351 2.506 36.756Z" fill="#fff"/><path d="M643.299 745.311s12.152 13.351 2.506 36.756" stroke="#000" stroke-width="5" stroke-miterlimit="10"/><path d="M643.299 745.311s12.152 13.351 2.506 36.756" stroke="#000" stroke-width="5" stroke-miterlimit="10"/></svg>

<svg width="800" height="800" viewBox="0 0 800 800" fill="none" xmlns="http://www.w3.org/2000/svg">
<path d="M324.73 658.285C324.73 658.285 327.038 687.349 337.092 692.375C347.147 697.402 490.397 714.989 502.963 720.016C515.528 725.043 631.134 747.666 648.728 745.153C666.32 742.639 683.912 720.016 686.425 682.323C686.425 682.323 693.964 657.191 704.018 687.351C714.071 717.504 701.504 732.583 704.018 745.154C706.532 757.72 711.557 772.799 704.018 777.827C696.687 782.71 515.946 787.594 473.576 771.694C470.878 770.685 468.036 770.187 465.157 770.053C443.247 769.035 366.939 768.008 327.04 760.233C321.466 759.144 282.451 755.066 276.777 755.206C256.602 755.685 241.591 762.745 221.486 752.692C207.269 745.58 181.275 712.476 181.275 712.476C181.275 712.476 178.762 740.127 181.275 747.665C183.788 755.204 193.841 775.311 188.814 782.849C183.788 790.388 98.3391 795.415 98.3391 795.415C98.3391 795.415 75.7212 780.336 115.932 772.796C156.143 765.259 151.116 745.152 151.116 745.152C151.116 745.152 110.905 652.159 108.392 639.598C105.879 627.028 105.879 596.874 120.958 591.848C136.037 586.822 158.655 584.31 173.735 611.954C188.814 639.598 221.485 664.73 221.485 664.73V659.699L324.73 658.285Z" fill="white" stroke="black" stroke-width="5" stroke-miterlimit="10"/>
<path d="M324.73 658.285C324.73 658.285 327.038 687.349 337.092 692.375C347.147 697.402 490.397 714.989 502.963 720.016C515.528 725.043 631.134 747.666 648.728 745.153C666.32 742.639 683.912 720.016 686.425 682.323C686.425 682.323 693.964 657.191 704.018 687.351C714.071 717.504 701.504 732.583 704.018 745.154C706.532 757.72 711.557 772.799 704.018 777.827C696.687 782.71 515.946 787.594 473.576 771.694C470.878 770.685 468.036 770.187 465.157 770.053C443.247 769.035 366.939 768.008 327.04 760.233C321.466 759.144 282.451 755.066 276.777 755.206C256.602 755.685 241.591 762.745 221.486 752.692C207.269 745.58 181.275 712.476 181.275 712.476C181.275 712.476 178.762 740.127 181.275 747.665C183.788 755.204 193.841 775.311 188.814 782.849C183.788 790.388 98.3391 795.415 98.3391 795.415C98.3391 795.415 75.7212 780.336 115.932 772.796C156.143 765.259 151.116 745.152 151.116 745.152C151.116 745.152 110.905 652.159 108.392 639.598C105.879 627.028 105.879 596.874 120.958 591.848C136.037 586.822 158.655 584.31 173.735 611.954C188.814 639.598 221.485 664.73 221.485 664.73V659.699L324.73 658.285Z" stroke="black" stroke-width="5" stroke-miterlimit="10"/>
<path d="M181.275 712.476C180.418 698.523 180.067 684.374 176.727 670.725C173.708 658.39 167.172 648.038 161.014 637.09" fill="white"/>
<path d="M181.275 712.476C180.418 698.523 180.067 684.374 176.727 670.725C173.708 658.39 167.172 648.038 161.014 637.09" stroke="black" stroke-width="5" stroke-miterlimit="10"/>
<path d="M181.275 712.476C180.418 698.523 180.067 684.374 176.727 670.725C173.708 658.39 167.172 648.038 161.014 637.09" stroke="black" stroke-width="5" stroke-miterlimit="10"/>
<path d="M325.155 662.188C291.757 671.322 256.953 671.112 221.486 659.7C226.259 618.134 220.728 578.776 220.728 578.776C230.03 551.708 226.512 529.014 226.512 529.014C226.512 529.014 236.112 525.522 248.476 515.871C260.84 506.194 257.6 473.601 257.6 473.601C257.6 473.601 258.401 473.724 273.48 473.724C288.559 473.724 289.187 473.601 289.187 473.601C289.187 473.601 286.1 506.194 298.464 515.871C310.853 525.522 322.013 529.014 322.013 529.014C322.013 529.014 316.933 551.708 326.21 578.776C326.21 578.776 319.974 619.966 325.155 662.188Z" fill="white" stroke="black" stroke-width="5" stroke-miterlimit="10"/>
<path d="M325.155 662.188C291.757 671.322 256.953 671.112 221.486 659.7C226.259 618.134 220.728 578.776 220.728 578.776C230.03 551.708 226.512 529.014 226.512 529.014C226.512 529.014 236.112 525.522 248.476 515.871C260.84 506.194 257.6 473.601 257.6 473.601C257.6 473.601 258.401 473.724 273.48 473.724C288.559 473.724 289.187 473.601 289.187 473.601C289.187 473.601 286.1 506.194 298.464 515.871C310.853 525.522 322.013 529.014 322.013 529.014C322.013 529.014 316.933 551.708 326.21 578.776C326.21 578.776 319.974 619.966 325.155 662.188Z" stroke="black" stroke-width="5" stroke-miterlimit="10"/>
<path d="M245.95 406.177C227.815 443.767 256.439 488.914 272.91 489.132C289.378 489.347 319.186 444.97 302.047 406.916C291.244 382.93 257.38 382.483 245.95 406.177Z" fill="white" stroke="black" stroke-width="5" stroke-miterlimit="10"/>
<path d="M245.95 406.177C227.815 443.767 256.439 488.914 272.91 489.132C289.378 489.347 319.186 444.97 302.047 406.916C291.244 382.93 257.38 382.483 245.95 406.177Z" stroke="black" stroke-width="5" stroke-miterlimit="10"/>
<path d="M379.744 451.436C365.285 443.497 368.953 433.315 356.124 423.134C343.295 412.951 327.403 419.827 320.693 403.379C314.039 387.083 292.378 377.776 273.504 378.004V378.001C273.494 378.001 273.484 378.004 273.475 378.004C273.465 378.004 273.455 378.001 273.445 378.001V378.004C254.567 377.776 232.906 387.083 226.257 403.379C219.547 419.827 203.655 412.951 190.824 423.134C177.998 433.314 181.662 443.497 167.206 451.436C152.747 459.379 151.57 458.643 152.137 464.878C152.971 474.073 185.848 470.435 210.507 471.063C215.34 471.189 232.942 476.08 237.649 477.185C247.278 479.438 259.647 479.12 259.903 475.668C260.31 470.17 258.548 457.091 254.793 450.399C251.042 443.704 243.297 445.863 243.297 436.042C243.297 426.877 247.057 430.445 255.711 422.297C263.341 415.11 270.977 406.791 273.475 400.032C275.973 406.791 283.606 415.111 291.234 422.297C299.89 430.445 303.652 426.877 303.652 436.042C303.652 445.863 295.904 443.704 292.152 450.399C288.402 457.091 286.64 470.17 287.048 475.668C287.302 479.118 299.671 479.438 309.3 477.185C314.008 476.08 331.609 471.189 336.442 471.063C361.098 470.435 393.976 474.072 394.81 464.878C395.379 458.643 394.201 459.379 379.744 451.436Z" fill="#040004" stroke="black" stroke-width="5" stroke-miterlimit="10"/>
<path d="M237.728 523.205C237.728 523.205 251.156 543.414 273.667 543.414C296.177 543.414 309.602 523.205 309.602 523.205" fill="white"/>
<path d="M237.728 523.205C237.728 523.205 251.156 543.414 273.667 543.414C296.177 543.414 309.602 523.205 309.602 523.205" stroke="black" stroke-width="5" stroke-miterlimit="10"/>
<path d="M237.728 523.205C237.728 523.205 251.156 543.414 273.667 543.414C296.177 543.414 309.602 523.205 309.602 523.205" stroke="black" stroke-width="5" stroke-miterlimit="10"/>
<path d="M261.964 639.594C265.461 639.96 266.882 596.87 269.341 594.356L271.8 591.842C271.8 591.842 274.262 589.329 274.262 599.381V645.837C274.262 650.47 269.91 653.809 265.557 652.521C265.557 652.521 264.742 652.271 264.423 652.16C230.436 653.753 198.034 653.434 168.493 649.646C161.112 644.62 158.653 642.108 163.572 619.487C168.493 596.87 200.47 544.093 205.387 536.552C210.306 529.014 226.485 529.014 226.485 529.014C231.404 531.527 223.932 576.8 218.946 579.277C213.953 581.757 188.815 629.54 188.815 629.54C188.815 629.54 189.347 632.055 261.964 639.594Z" fill="white" stroke="black" stroke-width="5" stroke-miterlimit="10"/>
<path d="M261.964 639.594C265.461 639.96 266.882 596.87 269.341 594.356L271.8 591.842C271.8 591.842 274.262 589.329 274.262 599.381V645.837C274.262 650.47 269.91 653.809 265.557 652.521C265.557 652.521 264.742 652.271 264.423 652.16C230.436 653.753 198.034 653.434 168.493 649.646C161.112 644.62 158.653 642.108 163.572 619.487C168.493 596.87 200.47 544.093 205.387 536.552C210.306 529.014 226.485 529.014 226.485 529.014C231.404 531.527 223.932 576.8 218.946 579.277C213.953 581.757 188.815 629.54 188.815 629.54C188.815 629.54 189.347 632.055 261.964 639.594Z" stroke="black" stroke-width="5" stroke-miterlimit="10"/>
<path d="M286.561 639.594C283.061 639.96 281.641 596.87 279.178 594.356L276.722 591.842C276.722 591.842 274.26 589.329 274.26 599.381V645.837C274.26 650.47 278.612 653.809 282.964 652.521C282.964 652.521 283.781 652.271 284.102 652.16C318.083 653.753 350.488 653.434 380.03 649.646C387.411 644.62 389.872 642.108 384.95 619.487C380.03 596.87 348.057 544.093 343.136 536.552C338.218 529.014 322.042 529.014 322.042 529.014C317.118 531.527 322.047 576.8 327.037 579.277C332.03 581.757 359.71 629.54 359.71 629.54C359.71 629.54 359.176 632.055 286.561 639.594Z" fill="white" stroke="black" stroke-width="5" stroke-miterlimit="10"/>
<path d="M286.561 639.594C283.061 639.96 281.641 596.87 279.178 594.356L276.722 591.842C276.722 591.842 274.26 589.329 274.26 599.381V645.837C274.26 650.47 278.612 653.809 282.964 652.521C282.964 652.521 283.781 652.271 284.102 652.16C318.083 653.753 350.488 653.434 380.03 649.646C387.411 644.62 389.872 642.108 384.95 619.487C380.03 596.87 348.057 544.093 343.136 536.552C338.218 529.014 322.042 529.014 322.042 529.014C317.118 531.527 322.047 576.8 327.037 579.277C332.03 581.757 359.71 629.54 359.71 629.54C359.71 629.54 359.176 632.055 286.561 639.594Z" stroke="black" stroke-width="5" stroke-miterlimit="10"/>
<path d="M151.116 745.147C151.116 745.147 167.58 755.2 180.708 745.147Z" fill="white"/>
<path d="M151.116 745.147C151.116 745.147 167.58 755.2 180.708 745.147" stroke="black" stroke-width="5" stroke-miterlimit="10"/>
<path d="M151.116 745.147C151.116 745.147 167.58 755.2 180.708 745.147" stroke="black" stroke-width="5" stroke-miterlimit="10"/>
<path d="M643.299 745.311C643.299 745.311 655.451 758.662 645.805 782.067Z" fill="white"/>
<path d="M643.299 745.311C643.299 745.311 655.451 758.662 645.805 782.067" stroke="black" stroke-width="5" stroke-miterlimit="10"/>
<path d="M643.299 745.311C643.299 745.311 655.451 758.662 645.805 782.067" stroke="black" stroke-width="5" stroke-miterlimit="10"/>
</svg>
